src/assets/icons/multicolor/requests.multicolor.svg

<svg width="24" height="24" fill="none">
  <mask id="a" fill="#fff">
    <path d="M20.5696 15.2639c-.0186-.3339-.1833-.6396-.4518-.8388-.4345-.3225-1.0374-.2888-1.4335.08l-2.4088 2.2433c.0147-.4935-.3098-.9292-.7956-1.0524l-2.9419-.7467c-.5159-.131-1.0561-.1133-1.5624.0511l-2.03377.6603v-.5853c0-.1611-.13065-.2917-.29174-.2917H5.92431c-.16111 0-.29174.1307-.29174.2917v5.197c0 .1611.13065.2918.29174.2918h2.72581c.16111 0 .29174-.1307.29174-.2918v-3.9982l2.21394-.7188c.4014-.1304.8297-.1443 1.2386-.0406l2.942.7467c.2285.058.3773.2704.3539.505-.0242.2426-.2264.4256-.4702.4256h-2.0506c-.1611 0-.2918.1306-.2918.2917 0 .1611.1307.2917.2918.2917h.6285c.011.0013.0221.0021.0334.0021h1.4469c.4826 0 .9429-.1812 1.2961-.5101l2.5077-2.3354c.1901-.1771.4795-.1932.6881-.0384.1289.0956.2079.2423.2169.4026.0089.1603-.0534.3149-.1708.4243l-3.4546 3.2159c-.2383.2218-.5489.344-.8744.344h-4.5212c-.1611 0-.2918.1306-.2918.2917 0 .1611.1307.2918.2918.2918h4.5212c.4736 0 .9253-.1777 1.272-.5004l3.4545-3.2159c.2447-.2279.3744-.55.3558-.8838zM8.35837 19.9807H6.21606v-4.6135h2.14228v4.6135h.00003z"/>
  </mask>
  <path fill="#093971" d="M20.5696 15.2639c-.0186-.3339-.1833-.6396-.4518-.8388-.4345-.3225-1.0374-.2888-1.4335.08l-2.4088 2.2433c.0147-.4935-.3098-.9292-.7956-1.0524l-2.9419-.7467c-.5159-.131-1.0561-.1133-1.5624.0511l-2.03377.6603v-.5853c0-.1611-.13065-.2917-.29174-.2917H5.92431c-.16111 0-.29174.1307-.29174.2917v5.197c0 .1611.13065.2918.29174.2918h2.72581c.16111 0 .29174-.1307.29174-.2918v-3.9982l2.21394-.7188c.4014-.1304.8297-.1443 1.2386-.0406l2.942.7467c.2285.058.3773.2704.3539.505-.0242.2426-.2264.4256-.4702.4256h-2.0506c-.1611 0-.2918.1306-.2918.2917 0 .1611.1307.2917.2918.2917h.6285c.011.0013.0221.0021.0334.0021h1.4469c.4826 0 .9429-.1812 1.2961-.5101l2.5077-2.3354c.1901-.1771.4795-.1932.6881-.0384.1289.0956.2079.2423.2169.4026.0089.1603-.0534.3149-.1708.4243l-3.4546 3.2159c-.2383.2218-.5489.344-.8744.344h-4.5212c-.1611 0-.2918.1306-.2918.2917 0 .1611.1307.2918.2918.2918h4.5212c.4736 0 .9253-.1777 1.272-.5004l3.4545-3.2159c.2447-.2279.3744-.55.3558-.8838zM8.35837 19.9807H6.21606v-4.6135h2.14228v4.6135h.00003z"/>
  <path fill="#093971" d="M20.1178 14.4251l-.5959.803.0001.0001.5958-.8031zm-1.4335.08l-.6815-.7319v.0001l.6815.7318zm-2.4088 2.2433l-.9996-.0297-.0711 2.3934 1.7522-1.6319-.6815-.7318zm-.7956-1.0524l-.246.9692v.0001l.246-.9693zm-2.9419-.7467l-.2461.9692.0001.0001.246-.9693zm-1.5624.0511l.3088.9511-.3088-.9511zm-2.03377.6603h-1v1.376l1.3088-.4249-.3088-.9511zm.00003.6135l-.3088-.9512-.6912.2244v.7268h1zm2.21394-.7188l.3088.9511h.0001l-.3089-.9511zm1.2386-.0406l.2461-.9692-.0001-.0001-.246.9693zm2.942.7467l.246-.9693-.246.9693zm.3539.505l-.9951-.0994v.0001l.9951.0993zm-1.8923 1.009l.1136-.9935-.0566-.0065h-.057v1zm2.7764-.508l.6814.7319.0001-.0001-.6815-.7318zm2.5077-2.3354l.6815.7318.0001-.0001-.6816-.7317zm.6881-.0384l-.5958.8031h.0001l.5957-.8031zm.2169.4026l-.9985.0556v.0002l.9985-.0558zm-.1708.4243l.6813.7319.0001-.0001-.6814-.7318zm-3.4546 3.2159l.6813.732v-.0001l-.6813-.7319zm.3976.4271l.6813.732.0001-.0001-.6814-.7319zm3.4545-3.2159l.6814.7319-.6814-.7319zm-13.99774 3.833h-1v1h1v-1zm0-4.6135v-1h-1v1h1zm2.14228 0h1v-1h-1v1zm0 4.6135h-1v1h1v-1zM21.568 15.2082c-.0351-.6303-.3472-1.21-.8544-1.5863l-1.1916 1.6063c.0299.0222.0471.054.0491.0913l1.9969-.1113zm-.8543-1.5862c-.8218-.6098-1.9619-.5462-2.7109.1512l1.3631 1.4637c.0431-.0402.1088-.0438.156-.0088l1.1918-1.6061zm-2.7109.1513l-2.4088 2.2433 1.363 1.4636 2.4089-2.2433-1.3631-1.4636zm-.7277 3.0048c.0285-.9601-.6074-1.8124-1.5493-2.0514l-.4919 1.9386c.0187.0047.0275.0127.0325.0194.0054.0072.01.0175.0095.034l1.9992.0594zm-1.5492-2.0514L12.784 13.98l-.492 1.9386 2.9419.7466.492-1.9385zM12.784 13.98c-.6989-.1774-1.4315-.1534-2.1172.0693l.6176 1.9022c.3268-.1061.6746-.1175 1.0075-.033l.4921-1.9385zm-2.1172.0692l-2.03376.6603.61759 1.9023 2.03377-.6603-.6176-1.9023zm-.72497 1.6115v-.5853h-2v.5853h2zm0-.5853c0-.7134-.57844-1.2917-1.29174-1.2917v2c-.39113 0-.70826-.317-.70826-.7083h2zm-1.29174-1.2917H5.92431v2h2.72578v-2zm-2.72578 0c-.71346 0-1.29174.5784-1.29174 1.2917h2c0 .3912-.31703.7083-.70826.7083v-2zm-1.29174 1.2917v5.197h2v-5.197h-2zm0 5.197c0 .7135.57844 1.2918 1.29174 1.2918v-2c.39113 0 .70826.317.70826.7082h-2zm1.29174 1.2918h2.72581v-2H5.92431v2zm2.72581 0c.71346 0 1.29174-.5785 1.29174-1.2918h-2c0-.3911.31703-.7082.70826-.7082v2zm1.29174-1.2918v-3.9982h-2v3.9982h2zm-.6912-3.0471l2.21394-.7188-.6176-1.9022-2.21394.7187.6176 1.9023zm2.21404-.7188c.2217-.072.4577-.0798.6838-.0224l.4919-1.9386c-.5918-.1501-1.2125-.1299-1.7935.0588l.6178 1.9022zm.6837-.0224l2.942.7467.492-1.9386-2.9419-.7466-.4921 1.9385zm2.9419.7467c-.2512-.0638-.4208-.3058-.3951-.5637l1.9901.1988c.0726-.7271-.3947-1.3939-1.1029-1.5737l-.4921 1.9386zm-.3951-.5636c.0269-.2687.2549-.4751.5249-.4751v2c.7576 0 1.39-.5724 1.4652-1.3263l-1.9901-.1986zm.5249-.4751h-2.0506v2h2.0506v-2zm-2.0506 0c-.7135 0-1.2918.5784-1.2918 1.2917h2c0 .3911-.317.7083-.7082.7083v-2zm-1.2918 1.2917c0 .7135.5785 1.2917 1.2918 1.2917v-2c.3911 0 .7082.3171.7082.7083h-2zm1.2918 1.2917h.6285v-2h-.6285v2zm.5149-.0064c.0395.0045.0895.0085.147.0085v-2c.0349 0 .0627.0024.0802.0044l-.2272 1.9871zm.147.0085h1.4469v-2h-1.4469v2zm1.4469 0c.7356 0 1.4393-.277 1.9775-.7782l-1.3629-1.4637c-.1682.1566-.385.2419-.6146.2419v2zm1.9776-.7783l2.5077-2.3354-1.363-1.4636-2.5077 2.3354 1.363 1.4636zm2.5078-2.3355c-.163.1518-.4108.1654-.5893.033l1.1916-1.6063c-.5957-.4419-1.4223-.3961-1.9655.1098l1.3632 1.4635zm-.5892.033c-.1099-.0815-.1783-.2087-.1859-.3449l1.9969-.1112c-.0254-.4567-.2518-.8775-.6195-1.1502l-1.1915 1.6063zm-.1859-.3447c-.0076-.1366.0465-.2705.1462-.3633l1.3629 1.4636c.3347-.3116.5134-.7547.4878-1.2119l-1.9969.1116zm.1463-.3635l-3.4546 3.216 1.3627 1.4638 3.4546-3.2159-1.3627-1.4639zm-3.4546 3.2159c-.0532.0496-.1203.076-.193.076v2c.5783 0 1.1323-.2179 1.5557-.612l-1.3627-1.464zm-.193.076h-4.5212v2h4.5212v-2zm-4.5212 0c-.7135 0-1.29178.5784-1.29178 1.2917h1.99998c0 .3912-.317.7083-.7082.7083v-2zm-1.29178 1.2917c0 .7135.57848 1.2918 1.29178 1.2918v-2c.3911 0 .7082.317.7082.7082H9.67432zm1.29178 1.2918h4.5212v-2h-4.5212v2zm4.5212 0c.7264 0 1.4216-.2735 1.9533-.7684l-1.3626-1.464c-.1617.1504-.37.2324-.5907.2324v2zm1.9534-.7685l3.4545-3.2159-1.3628-1.4639-3.4545 3.2159 1.3628 1.4639zm3.4545-3.2159c.4621-.4302.708-1.0409.6728-1.6714l-1.9969.1113c.0021.0373-.0114.0708-.0387.0962l1.3628 1.4639zM8.35837 18.9807H6.21606v2h2.14231v-2zm-1.14231 1v-4.6135h-2v4.6135h2zm-1-3.6135h2.14228v-2H6.21606v2zm1.14228-1v4.6135h2v-4.6135h-2zm1 5.6135h.00003v-2h-.00003v2z" mask="url(#a)"/>
  <mask id="b" fill="#fff">
    <path d="M12 0C5.37259 0 0 5.37259 0 12c0 6.6274 5.37259 12 12 12 6.6274 0 12-5.3726 12-12 0-6.62741-5.3726-12-12-12zm0 23.25C5.79671 23.25.75 18.2033.75 12 .75 5.79675 5.79671.75 12 .75 18.2033.75 23.25 5.79675 23.25 12c0 6.2033-5.0467 11.25-11.25 11.25z"/>
  </mask>
  <path fill="#093971" d="M12 0C5.37259 0 0 5.37259 0 12c0 6.6274 5.37259 12 12 12 6.6274 0 12-5.3726 12-12 0-6.62741-5.3726-12-12-12zm0 23.25C5.79671 23.25.75 18.2033.75 12 .75 5.79675 5.79671.75 12 .75 18.2033.75 23.25 5.79675 23.25 12c0 6.2033-5.0467 11.25-11.25 11.25z"/>
  <path fill="#093971" d="M12-1C4.8203-1-1 4.8203-1 12h2C1 5.92487 5.92487 1 12 1v-2zM-1 12c0 7.1797 5.8203 13 13 13v-2C5.92487 23 1 18.0751 1 12h-2zm13 13c7.1797 0 13-5.8203 13-13h-2c0 6.0751-4.9249 11-11 11v2zm13-13c0-7.1797-5.8203-13-13-13v2c6.0751 0 11 4.92487 11 11h2zM12 22.25C6.349 22.25 1.75 17.651 1.75 12h-2c0 6.7556 5.49443 12.25 12.25 12.25v-2zM1.75 12C1.75 6.34903 6.349 1.75 12 1.75v-2C5.24443-.25-.25 5.24447-.25 12h2zM12 1.75c5.651 0 10.25 4.59903 10.25 10.25h2C24.25 5.24447 18.7555-.25 12-.25v2zM22.25 12c0 5.651-4.599 10.25-10.25 10.25v2c6.7555 0 12.25-5.4944 12.25-12.25h-2z" mask="url(#b)"/>
  <path fill="#093971" stroke="#093971" stroke-width=".25" d="M12.4898 13.3495c.3395 0 .6148-.2753.6148-.6148 0-.3396-.2753-.6148-.6148-.6148s-.6148.2752-.6148.6148c0 .3395.2753.6148.6148.6148zM13.4909 8.90586l-.0001.00001c-.343.15072-.4991.56161-.5597.98903-.0294.2074-.0344.4056-.0317.5534.0013.0737.0045.1344.0074.1769.0028.0411.0053.0647.0055.0662v.0001l-.1242.0142.1241-.0152c.0283.2312-.1477.4276-.3742.4522-.0002.0001-.0005.0001-.0007.0001l-.0133-.1243c-.0115.0014-.0229.0019-.0343.0019-.1507 0-.2805-.1063-.2978-.2507l1.299-1.86384zm0 0c1.3265-.58318 2.3076-1.87138 2.3076-3.08699 0-1.00549-.3194-1.82239-.919-2.38725-.5987-.56396-1.4618-.86271-2.5232-.86271-.9648 0-1.7607.28257-2.3163.80597m3.4509 5.53098L10.04 3.37488m0 0c-.55655.52422-.85885 1.27762-.85885 2.19219M10.04 3.37488l-.85885 2.19219m0 0c0 .23222.19733.40773.42515.40773m-.42515-.40773l.42515.40773m0 0c.22778 0 .4252-.1755.4252-.40773m-.4252.40773l.4252-.40773m0 0c0-.70757.2146-1.24825.6017-1.61286m-.6017 1.61286l.6017-1.61286m0 0c.3882-.36563.9662-.56984 1.7231-.56984m-1.7231.56984l1.7231-.56984m0 0c1.1507 0 1.7888.38824 2.1443.87049m-2.1443-.87049l2.1443.87049m0 0c.3609.48935.4476 1.09779.4476 1.56401m-.4476-1.56401l.4476 1.56401m0 0c0 .4298-.1885.9006-.5141 1.32535m.5141-1.32535l-.5141 1.32535m0 0c-.3249.4237-.78.79277-1.2977 1.02032l1.2977-1.02032z"/>
</svg>

<svg width="24" height="24" viewBox="0 0 24 24" fill="none" xmlns="http://www.w3.org/2000/svg">
<mask id="path-1-inside-1" fill="white">
<path d="M20.5696 15.2639C20.551 14.93 20.3863 14.6243 20.1178 14.4251C19.6833 14.1026 19.0804 14.1363 18.6843 14.5051L16.2755 16.7484C16.2902 16.2549 15.9657 15.8192 15.4799 15.696L12.538 14.9493C12.0221 14.8183 11.4819 14.836 10.9756 15.0004L8.94183 15.6607V15.0754C8.94183 14.9143 8.81118 14.7837 8.65009 14.7837H5.92431C5.7632 14.7837 5.63257 14.9144 5.63257 15.0754V20.2724C5.63257 20.4335 5.76322 20.5642 5.92431 20.5642H8.65012C8.81123 20.5642 8.94186 20.4335 8.94186 20.2724V16.2742L11.1558 15.5554C11.5572 15.425 11.9855 15.4111 12.3944 15.5148L15.3364 16.2615C15.5649 16.3195 15.7137 16.5319 15.6903 16.7665C15.6661 17.0091 15.4639 17.1921 15.2201 17.1921H13.1695C13.0084 17.1921 12.8777 17.3227 12.8777 17.4838C12.8777 17.6449 13.0084 17.7755 13.1695 17.7755H13.798C13.809 17.7768 13.8201 17.7776 13.8314 17.7776H15.2783C15.7609 17.7776 16.2212 17.5964 16.5744 17.2675L19.0821 14.9321C19.2722 14.755 19.5616 14.7389 19.7702 14.8937C19.8991 14.9893 19.9781 15.136 19.9871 15.2963C19.996 15.4566 19.9337 15.6112 19.8163 15.7206L16.3617 18.9365C16.1234 19.1583 15.8128 19.2805 15.4873 19.2805H10.9661C10.805 19.2805 10.6743 19.4111 10.6743 19.5722C10.6743 19.7333 10.805 19.864 10.9661 19.864H15.4873C15.9609 19.864 16.4126 19.6863 16.7593 19.3636L20.2138 16.1477C20.4585 15.9198 20.5882 15.5977 20.5696 15.2639ZM8.35837 19.9807H6.21606V15.3672H8.35834V19.9807H8.35837Z"/>
</mask>
<path d="M20.5696 15.2639C20.551 14.93 20.3863 14.6243 20.1178 14.4251C19.6833 14.1026 19.0804 14.1363 18.6843 14.5051L16.2755 16.7484C16.2902 16.2549 15.9657 15.8192 15.4799 15.696L12.538 14.9493C12.0221 14.8183 11.4819 14.836 10.9756 15.0004L8.94183 15.6607V15.0754C8.94183 14.9143 8.81118 14.7837 8.65009 14.7837H5.92431C5.7632 14.7837 5.63257 14.9144 5.63257 15.0754V20.2724C5.63257 20.4335 5.76322 20.5642 5.92431 20.5642H8.65012C8.81123 20.5642 8.94186 20.4335 8.94186 20.2724V16.2742L11.1558 15.5554C11.5572 15.425 11.9855 15.4111 12.3944 15.5148L15.3364 16.2615C15.5649 16.3195 15.7137 16.5319 15.6903 16.7665C15.6661 17.0091 15.4639 17.1921 15.2201 17.1921H13.1695C13.0084 17.1921 12.8777 17.3227 12.8777 17.4838C12.8777 17.6449 13.0084 17.7755 13.1695 17.7755H13.798C13.809 17.7768 13.8201 17.7776 13.8314 17.7776H15.2783C15.7609 17.7776 16.2212 17.5964 16.5744 17.2675L19.0821 14.9321C19.2722 14.755 19.5616 14.7389 19.7702 14.8937C19.8991 14.9893 19.9781 15.136 19.9871 15.2963C19.996 15.4566 19.9337 15.6112 19.8163 15.7206L16.3617 18.9365C16.1234 19.1583 15.8128 19.2805 15.4873 19.2805H10.9661C10.805 19.2805 10.6743 19.4111 10.6743 19.5722C10.6743 19.7333 10.805 19.864 10.9661 19.864H15.4873C15.9609 19.864 16.4126 19.6863 16.7593 19.3636L20.2138 16.1477C20.4585 15.9198 20.5882 15.5977 20.5696 15.2639ZM8.35837 19.9807H6.21606V15.3672H8.35834V19.9807H8.35837Z" fill="#093971"/>
<path d="M20.1178 14.4251L19.5219 15.2281L19.522 15.2282L20.1178 14.4251ZM18.6843 14.5051L18.0028 13.7732L18.0028 13.7733L18.6843 14.5051ZM16.2755 16.7484L15.2759 16.7187L15.2048 19.1121L16.957 17.4802L16.2755 16.7484ZM15.4799 15.696L15.2339 16.6652L15.2339 16.6653L15.4799 15.696ZM12.538 14.9493L12.2919 15.9185L12.292 15.9186L12.538 14.9493ZM10.9756 15.0004L11.2844 15.9515L11.2844 15.9515L10.9756 15.0004ZM8.94183 15.6607H7.94183V17.0367L9.25063 16.6118L8.94183 15.6607ZM8.94186 16.2742L8.63306 15.323L7.94186 15.5474V16.2742H8.94186ZM11.1558 15.5554L11.4646 16.5065L11.4647 16.5065L11.1558 15.5554ZM12.3944 15.5148L12.6405 14.5456L12.6404 14.5455L12.3944 15.5148ZM15.3364 16.2615L15.5824 15.2922L15.5824 15.2922L15.3364 16.2615ZM15.6903 16.7665L14.6952 16.6671L14.6952 16.6672L15.6903 16.7665ZM13.798 17.7755L13.9116 16.782L13.855 16.7755H13.798V17.7755ZM16.5744 17.2675L17.2558 17.9994L17.2559 17.9993L16.5744 17.2675ZM19.0821 14.9321L19.7636 15.6639L19.7637 15.6638L19.0821 14.9321ZM19.7702 14.8937L19.1744 15.6968L19.1745 15.6968L19.7702 14.8937ZM19.9871 15.2963L18.9886 15.3519L18.9886 15.3521L19.9871 15.2963ZM19.8163 15.7206L20.4976 16.4525L20.4977 16.4524L19.8163 15.7206ZM16.3617 18.9365L17.043 19.6685L17.043 19.6684L16.3617 18.9365ZM16.7593 19.3636L17.4406 20.0956L17.4407 20.0955L16.7593 19.3636ZM20.2138 16.1477L20.8952 16.8796L20.8952 16.8796L20.2138 16.1477ZM6.21606 19.9807H5.21606V20.9807H6.21606V19.9807ZM6.21606 15.3672V14.3672H5.21606V15.3672H6.21606ZM8.35834 15.3672H9.35834V14.3672H8.35834V15.3672ZM8.35834 19.9807H7.35834V20.9807H8.35834V19.9807ZM21.568 15.2082C21.5329 14.5779 21.2208 13.9982 20.7136 13.6219L19.522 15.2282C19.5519 15.2504 19.5691 15.2822 19.5711 15.3195L21.568 15.2082ZM20.7137 13.622C19.8919 13.0122 18.7518 13.0758 18.0028 13.7732L19.3659 15.2369C19.409 15.1967 19.4747 15.1931 19.5219 15.2281L20.7137 13.622ZM18.0028 13.7733L15.594 16.0166L16.957 17.4802L19.3659 15.2369L18.0028 13.7733ZM17.2751 16.7781C17.3036 15.818 16.6677 14.9657 15.7258 14.7267L15.2339 16.6653C15.2526 16.67 15.2614 16.678 15.2664 16.6847C15.2718 16.6919 15.2764 16.7022 15.2759 16.7187L17.2751 16.7781ZM15.7259 14.7267L12.784 13.98L12.292 15.9186L15.2339 16.6652L15.7259 14.7267ZM12.784 13.98C12.0851 13.8026 11.3525 13.8266 10.6668 14.0493L11.2844 15.9515C11.6112 15.8454 11.959 15.834 12.2919 15.9185L12.784 13.98ZM10.6668 14.0492L8.63304 14.7095L9.25063 16.6118L11.2844 15.9515L10.6668 14.0492ZM9.94183 15.6607V15.0754H7.94183V15.6607H9.94183ZM9.94183 15.0754C9.94183 14.362 9.36339 13.7837 8.65009 13.7837V15.7837C8.25896 15.7837 7.94183 15.4667 7.94183 15.0754H9.94183ZM8.65009 13.7837H5.92431V15.7837H8.65009V13.7837ZM5.92431 13.7837C5.21085 13.7837 4.63257 14.3621 4.63257 15.0754H6.63257C6.63257 15.4666 6.31554 15.7837 5.92431 15.7837V13.7837ZM4.63257 15.0754V20.2724H6.63257V15.0754H4.63257ZM4.63257 20.2724C4.63257 20.9859 5.21101 21.5642 5.92431 21.5642V19.5642C6.31544 19.5642 6.63257 19.8812 6.63257 20.2724H4.63257ZM5.92431 21.5642H8.65012V19.5642H5.92431V21.5642ZM8.65012 21.5642C9.36358 21.5642 9.94186 20.9857 9.94186 20.2724H7.94186C7.94186 19.8813 8.25889 19.5642 8.65012 19.5642V21.5642ZM9.94186 20.2724V16.2742H7.94186V20.2724H9.94186ZM9.25066 17.2253L11.4646 16.5065L10.847 14.6043L8.63306 15.323L9.25066 17.2253ZM11.4647 16.5065C11.6864 16.4345 11.9224 16.4267 12.1485 16.4841L12.6404 14.5455C12.0486 14.3954 11.4279 14.4156 10.8469 14.6043L11.4647 16.5065ZM12.1484 16.4841L15.0904 17.2308L15.5824 15.2922L12.6405 14.5456L12.1484 16.4841ZM15.0903 17.2308C14.8391 17.167 14.6695 16.925 14.6952 16.6671L16.6853 16.8659C16.7579 16.1388 16.2906 15.472 15.5824 15.2922L15.0903 17.2308ZM14.6952 16.6672C14.7221 16.3985 14.9501 16.1921 15.2201 16.1921V18.1921C15.9777 18.1921 16.6101 17.6197 16.6853 16.8658L14.6952 16.6672ZM15.2201 16.1921H13.1695V18.1921H15.2201V16.1921ZM13.1695 16.1921C12.456 16.1921 11.8777 16.7705 11.8777 17.4838H13.8777C13.8777 17.8749 13.5607 18.1921 13.1695 18.1921V16.1921ZM11.8777 17.4838C11.8777 18.1973 12.4562 18.7755 13.1695 18.7755V16.7755C13.5606 16.7755 13.8777 17.0926 13.8777 17.4838H11.8777ZM13.1695 18.7755H13.798V16.7755H13.1695V18.7755ZM13.6844 18.7691C13.7239 18.7736 13.7739 18.7776 13.8314 18.7776V16.7776C13.8663 16.7776 13.8941 16.78 13.9116 16.782L13.6844 18.7691ZM13.8314 18.7776H15.2783V16.7776H13.8314V18.7776ZM15.2783 18.7776C16.0139 18.7776 16.7176 18.5006 17.2558 17.9994L15.8929 16.5357C15.7247 16.6923 15.5079 16.7776 15.2783 16.7776V18.7776ZM17.2559 17.9993L19.7636 15.6639L18.4006 14.2003L15.8929 16.5357L17.2559 17.9993ZM19.7637 15.6638C19.6007 15.8156 19.3529 15.8292 19.1744 15.6968L20.366 14.0905C19.7703 13.6486 18.9437 13.6944 18.4005 14.2003L19.7637 15.6638ZM19.1745 15.6968C19.0646 15.6153 18.9962 15.4881 18.9886 15.3519L20.9855 15.2407C20.9601 14.784 20.7337 14.3632 20.366 14.0905L19.1745 15.6968ZM18.9886 15.3521C18.981 15.2155 19.0351 15.0816 19.1348 14.9888L20.4977 16.4524C20.8324 16.1408 21.0111 15.6977 20.9855 15.2405L18.9886 15.3521ZM19.1349 14.9886L15.6803 18.2046L17.043 19.6684L20.4976 16.4525L19.1349 14.9886ZM15.6803 18.2045C15.6271 18.2541 15.56 18.2805 15.4873 18.2805V20.2805C16.0656 20.2805 16.6196 20.0626 17.043 19.6685L15.6803 18.2045ZM15.4873 18.2805H10.9661V20.2805H15.4873V18.2805ZM10.9661 18.2805C10.2526 18.2805 9.67432 18.8589 9.67432 19.5722H11.6743C11.6743 19.9634 11.3573 20.2805 10.9661 20.2805V18.2805ZM9.67432 19.5722C9.67432 20.2857 10.2528 20.864 10.9661 20.864V18.864C11.3572 18.864 11.6743 19.181 11.6743 19.5722H9.67432ZM10.9661 20.864H15.4873V18.864H10.9661V20.864ZM15.4873 20.864C16.2137 20.864 16.9089 20.5905 17.4406 20.0956L16.078 18.6316C15.9163 18.782 15.708 18.864 15.4873 18.864V20.864ZM17.4407 20.0955L20.8952 16.8796L19.5324 15.4157L16.0779 18.6316L17.4407 20.0955ZM20.8952 16.8796C21.3573 16.4494 21.6032 15.8387 21.568 15.2082L19.5711 15.3195C19.5732 15.3568 19.5597 15.3903 19.5324 15.4157L20.8952 16.8796ZM8.35837 18.9807H6.21606V20.9807H8.35837V18.9807ZM7.21606 19.9807V15.3672H5.21606V19.9807H7.21606ZM6.21606 16.3672H8.35834V14.3672H6.21606V16.3672ZM7.35834 15.3672V19.9807H9.35834V15.3672H7.35834ZM8.35834 20.9807H8.35837V18.9807H8.35834V20.9807Z" fill="#093971" mask="url(#path-1-inside-1)"/>
<mask id="path-3-inside-2" fill="white">
<path d="M12 0C5.37259 0 0 5.37259 0 12C0 18.6274 5.37259 24 12 24C18.6274 24 24 18.6274 24 12C24 5.37259 18.6274 0 12 0ZM12 23.25C5.79671 23.25 0.75 18.2033 0.75 12C0.75 5.79675 5.79671 0.75 12 0.75C18.2033 0.75 23.25 5.79675 23.25 12C23.25 18.2033 18.2033 23.25 12 23.25Z"/>
</mask>
<path d="M12 0C5.37259 0 0 5.37259 0 12C0 18.6274 5.37259 24 12 24C18.6274 24 24 18.6274 24 12C24 5.37259 18.6274 0 12 0ZM12 23.25C5.79671 23.25 0.75 18.2033 0.75 12C0.75 5.79675 5.79671 0.75 12 0.75C18.2033 0.75 23.25 5.79675 23.25 12C23.25 18.2033 18.2033 23.25 12 23.25Z" fill="#093971"/>
<path d="M12 -1C4.8203 -1 -1 4.8203 -1 12H1C1 5.92487 5.92487 1 12 1V-1ZM-1 12C-1 19.1797 4.8203 25 12 25V23C5.92487 23 1 18.0751 1 12H-1ZM12 25C19.1797 25 25 19.1797 25 12H23C23 18.0751 18.0751 23 12 23V25ZM25 12C25 4.8203 19.1797 -1 12 -1V1C18.0751 1 23 5.92487 23 12H25ZM12 22.25C6.349 22.25 1.75 17.651 1.75 12H-0.25C-0.25 18.7556 5.24443 24.25 12 24.25V22.25ZM1.75 12C1.75 6.34903 6.349 1.75 12 1.75V-0.25C5.24443 -0.25 -0.25 5.24447 -0.25 12H1.75ZM12 1.75C17.651 1.75 22.25 6.34903 22.25 12H24.25C24.25 5.24447 18.7555 -0.25 12 -0.25V1.75ZM22.25 12C22.25 17.651 17.651 22.25 12 22.25V24.25C18.7555 24.25 24.25 18.7556 24.25 12H22.25Z" fill="#093971" mask="url(#path-3-inside-2)"/>
<path d="M12.4898 13.3495C12.8293 13.3495 13.1046 13.0742 13.1046 12.7347C13.1046 12.3951 12.8293 12.1199 12.4898 12.1199C12.1503 12.1199 11.875 12.3951 11.875 12.7347C11.875 13.0742 12.1503 13.3495 12.4898 13.3495Z" fill="#093971" stroke="#093971" stroke-width="0.25"/>
<path d="M13.4909 8.90586L13.4908 8.90587C13.1478 9.05659 12.9917 9.46748 12.9311 9.8949C12.9017 10.1023 12.8967 10.3005 12.8994 10.4483C12.9007 10.522 12.9039 10.5827 12.9068 10.6252C12.9096 10.6663 12.9121 10.6899 12.9123 10.6914L12.9123 10.6915L12.7881 10.7057L12.9122 10.6905C12.9405 10.9217 12.7645 11.1181 12.538 11.1427C12.5378 11.1428 12.5375 11.1428 12.5373 11.1428L12.524 11.0185C12.5125 11.0199 12.5011 11.0204 12.4897 11.0204C12.339 11.0204 12.2092 10.9141 12.1919 10.7697L13.4909 8.90586ZM13.4909 8.90586C14.8174 8.32268 15.7985 7.03448 15.7985 5.81887C15.7985 4.81338 15.4791 3.99648 14.8795 3.43162C14.2808 2.86766 13.4177 2.56891 12.3563 2.56891C11.3915 2.56891 10.5956 2.85148 10.04 3.37488M13.4909 8.90586L10.04 3.37488M10.04 3.37488C9.48345 3.8991 9.18115 4.6525 9.18115 5.56707M10.04 3.37488L9.18115 5.56707M9.18115 5.56707C9.18115 5.79929 9.37848 5.9748 9.6063 5.9748M9.18115 5.56707L9.6063 5.9748M9.6063 5.9748C9.83408 5.9748 10.0315 5.7993 10.0315 5.56707M9.6063 5.9748L10.0315 5.56707M10.0315 5.56707C10.0315 4.8595 10.2461 4.31882 10.6332 3.95421M10.0315 5.56707L10.6332 3.95421M10.6332 3.95421C11.0214 3.58858 11.5994 3.38437 12.3563 3.38437M10.6332 3.95421L12.3563 3.38437M12.3563 3.38437C13.507 3.38437 14.1451 3.77261 14.5006 4.25486M12.3563 3.38437L14.5006 4.25486M14.5006 4.25486C14.8615 4.74421 14.9482 5.35265 14.9482 5.81887M14.5006 4.25486L14.9482 5.81887M14.9482 5.81887C14.9482 6.24867 14.7597 6.71947 14.4341 7.14422M14.9482 5.81887L14.4341 7.14422M14.4341 7.14422C14.1092 7.56792 13.6541 7.93699 13.1364 8.16454L14.4341 7.14422Z" fill="#093971" stroke="#093971" stroke-width="0.25"/>
</svg>
